X: 21602
M: 6/8
L: 1/8
K: G
|:\
g3 dBd | c2B A2c | BdB A2G | F>EF D3 |\
g3 dBd | c2B Ace | dcB AGF | G3 G3 :|
|:\
E2c cde | dBG G2g | dBG cAF | G3 G3 :|
dBd ege | dBd c2A | dBG EFG | ABG FED |\
dBd ege | dBd c2A | dBG DEF | G3 G2 |]
dBd ege | dBd c2A | dBG EFG | ABG FED |\
dgb bgd | cfa afc | Bed cBA | GDC B,A,G, |]


